svgs/light/bring-front.svg

<svg xmlns="http://www.w3.org/2000/svg" viewBox="0 0 640 512"><!--! Font Awesome Pro 6.6.0 by @fontawesome - https://fontawesome.com License - https://fontawesome.com/license (Commercial License) Copyright 2024 Fonticons, Inc. --><path d="M64 32l128 0c17.7 0 32 14.3 32 32l32 0c0-35.3-28.7-64-64-64L64 0C28.7 0 0 28.7 0 64L0 192c0 35.3 28.7 64 64 64l64 0 0-32-64 0c-17.7 0-32-14.3-32-32L32 64c0-17.7 14.3-32 32-32zM448 512l128 0c35.3 0 64-28.7 64-64l0-128c0-35.3-28.7-64-64-64l-64 0 0 32 64 0c17.7 0 32 14.3 32 32l0 128c0 17.7-14.3 32-32 32l-128 0c-17.7 0-32-14.3-32-32l-32 0c0 35.3 28.7 64 64 64zM416 128c17.7 0 32 14.3 32 32l0 192c0 17.7-14.3 32-32 32l-192 0c-17.7 0-32-14.3-32-32l0-192c0-17.7 14.3-32 32-32l192 0zM224 96c-35.3 0-64 28.7-64 64l0 192c0 35.3 28.7 64 64 64l192 0c35.3 0 64-28.7 64-64l0-192c0-35.3-28.7-64-64-64L224 96zm32 96l128 0 0 128-128 0 0-128zm-32 0l0 128c0 17.7 14.3 32 32 32l128 0c17.7 0 32-14.3 32-32l0-128c0-17.7-14.3-32-32-32l-128 0c-17.7 0-32 14.3-32 32z"/></svg>

<svg xmlns="http://www.w3.org/2000/svg" viewBox="0 0 640 512"><!--! Font Awesome Pro 6.4.0 by @fontawesome - https://fontawesome.com License - https://fontawesome.com/license (Commercial License) Copyright 2023 Fonticons, Inc. --><path d="M64 32H192c17.7 0 32 14.3 32 32h32c0-35.3-28.7-64-64-64H64C28.7 0 0 28.7 0 64V192c0 35.3 28.7 64 64 64h64V224H64c-17.7 0-32-14.3-32-32V64c0-17.7 14.3-32 32-32zM448 512H576c35.3 0 64-28.7 64-64V320c0-35.3-28.7-64-64-64H512v32h64c17.7 0 32 14.3 32 32V448c0 17.7-14.3 32-32 32H448c-17.7 0-32-14.3-32-32H384c0 35.3 28.7 64 64 64zM416 128c17.7 0 32 14.3 32 32V352c0 17.7-14.3 32-32 32H224c-17.7 0-32-14.3-32-32V160c0-17.7 14.3-32 32-32H416zM224 96c-35.3 0-64 28.7-64 64V352c0 35.3 28.7 64 64 64H416c35.3 0 64-28.7 64-64V160c0-35.3-28.7-64-64-64H224zm32 96H384V320H256V192zm-32 0V320c0 17.7 14.3 32 32 32H384c17.7 0 32-14.3 32-32V192c0-17.7-14.3-32-32-32H256c-17.7 0-32 14.3-32 32z"/></svg>
